dist/images/icons/google.svg

<svg width="24" height="24" viewBox="0 0 24 24" fill="none" xmlns="http://www.w3.org/2000/svg">
<path fill-rule="evenodd" clip-rule="evenodd" d="M18.8751 10.6027H12.1479C12.1479 11.3023 12.1479 12.7015 12.1436 13.4011H16.0418C15.8925 14.1007 15.3628 15.0802 14.6145 15.5734C14.6138 15.5727 14.6131 15.5776 14.6116 15.5769C13.6167 16.2338 12.3037 16.3829 11.3288 16.187C9.80069 15.8833 8.59134 14.7752 8.10032 13.3675C8.10317 13.3654 8.10532 13.3459 8.10746 13.3445C7.80012 12.4714 7.80012 11.3023 8.10746 10.6027H8.10675C8.50272 9.31683 9.74851 8.14359 11.2788 7.82247C12.5096 7.56152 13.8983 7.84416 14.9197 8.79982C15.0555 8.6669 16.7995 6.96405 16.9303 6.82553C13.4409 3.66541 7.85373 4.77708 5.7631 8.85789H5.76239C5.76239 8.85789 5.7631 8.85789 5.75882 8.86558C4.72458 10.87 4.76747 13.2318 5.76596 15.1404C5.7631 15.1425 5.76096 15.1438 5.75882 15.1459C6.66368 16.902 8.31045 18.2487 10.2946 18.7615C12.4024 19.3142 15.0848 18.9364 16.8817 17.3112C16.8824 17.3119 16.8831 17.3126 16.8838 17.3133C18.4062 15.9421 19.354 13.6061 18.8751 10.6027Z" fill="white"/>
</svg>

<svg width="24" height="24" fill="none" xmlns="http://www.w3.org/2000/svg"><path fill-rule="evenodd" clip-rule="evenodd" d="M18.875 10.603h-6.727c0 .7 0 2.098-.004 2.798h3.898c-.15.7-.68 1.68-1.428 2.172 0 0 0 .005-.002.004-.995.657-2.308.806-3.283.61a4.33 4.33 0 01-3.229-2.82c.003-.002.005-.021.007-.023-.307-.873-.307-2.042 0-2.741.396-1.286 1.642-2.46 3.172-2.78 1.23-.261 2.62.021 3.64.977.136-.133 1.88-1.836 2.011-1.974-3.49-3.16-9.076-2.049-11.167 2.032l-.004.008a6.837 6.837 0 00.007 6.274l-.007.006a7.126 7.126 0 004.536 3.616c2.107.552 4.79.174 6.587-1.45l.002.001c1.522-1.37 2.47-3.707 1.991-6.71z" fill="#fff"/></svg>
